!!!OTL: 467. Nachts zwoelf Uhr.
!!!ODT: 1808
!!!ARE: Europa, Mitteleuropa, Deutschland
!!!SCT: B0467
!!!TXL: @@DE
!!!YEM: Copyright 1995, estate of Helmut Schaffrath.
**kern	**text
*ICvox	*
*Ivox	*
*clefG2	*
*M2/4	*
*k[f#]	*
*G:	*
!LO:TX:a:t=Schmachtend.	!
{8gg	Der
=1	=1
8.dd	Him-
16ee	-mel
8dd	iſt
8gg	ſo
=2	=2
(8.bL	trü-
16ccJ)	.
8b}	-be,
{8dd	es
=3	=3
8cc	ſcheint
8b	kein
8cc	Mond
8dd	noch
=4	=4
4b	Stern
8r}	.
{8gg	Der
=5	=5
8.dd	a-
16ee	-ber,
8dd	den
8gg	ich
=6	=6
(8.bL	lie-
16ccJ)	.
8b}	-be,
{8dd	ach,
=7	=7
8cc	jetʒt
8b	ſo
8cc	fern,
8dd	ſo
=8	=8
4b	fern!
8r}	.
{8dd	Verſprach
=9	=9
8.ee	.
16dd	mit
8ee	Hand
8dd	und
=10	=10
4dd	Mun-
8b}	-de
{8dd	beim
=11	=11
8cc	Ausein-
8b	.
8cc	-an-
8dd	-der
=12	=12
4b	gehn,
8r}	.
{8g	ge-
=13	=13
8.b	-rad
16g	um
8b	die-
8g	-ſe
=14	=14
4cc	Stun-
8b}	-de,
{8b	ʒum
=15	=15
8a	Him-
8g	-mel
8a	auf-
8b	-ʒu-
=16	=16
4g	-ſehn.
8r}	.
==	==
!!!AGN: Liebes - Lied, Leid, Klage
!!!GTL: Liebeslieder - Liebesleid
!!!ONB: ESAC (Essen Associative Code) Database: BOEHME
!!!AMT: simple duple
!!!AIN: vox
!!!EED: Helmut Schaffrath
!!!EEV: 1.0
!!Mel. handֵſchriftlich um 1808.
!!@@COMMENT:"Gedicht von Leopold Fr. Guenther v. Goecking. 1787.[...]"
!!@@END:
!!!Text: L. Fr. Guenther von Goecking
!!!URL-scan: https://archive.org/details/BoehmeVtLieder1895/page/n375/mode/2up
!!!ENC: Anna Maria Matuszewska
!!!EEV: 2024/10/07
*-	*-
